X:72
T:Music for the Funeral of Queen Mary - March
C:Purcell, H.
M:4/4
L:1/8
Q:1/4=60
K:Cmin
|:G2|c4 Bc d2|e4 d2 c2|B4 AG F2|G4 G2 G2|
c4 cd e2|f2 ef g2 a2|b4 a2 g2|c4 c2:|

